X:1
T:Cullingworth, 11.10.11.10
T:Edwin Moss, 1877
T:Cullingworth, 11.10.11.10
T:Public Domain
C:Edwin Moss, 1877
Z:Public Domain
%%score ( 1 2 ) ( 3 4 )
L:1/8
M:4/4
K:Eb
V:1 treble 
V:2 treble 
V:3 bass 
V:4 bass 
V:1
 [EG]4 [EA]2 [Ec]2 | [EB]6 [_DE]2 | [CE]2 [B,E]2 [DA]2 [EG]2 | [EG]4 [DF]4 | [EG]4 [F=A]2 F2 | %5
 [FB]6 [Fd]2 | [Ed]2 [Ec]2 [DB]2 [C=A]2 | [DB]8 | (B2 G2) [DF]2 E2 | [Ee]4 [Ec]4 | %10
 [=EB]2 [EG]2 [Gc]2 [GB]2 | [GB]4 [FA]4 | [DA]4 [DG]2 [DF]2 | E2 [_DE]2 [CE]2 [EA]2 | [EG]4 [DF]4 | %15
 E8 |] %16
V:2
 x8 | x8 | x8 | x8 | x6 F2 | x8 | x8 | x8 | E4 E2 x2 | x8 | x8 | x8 | x8 | E2 x6 | x8 | E8 |] %16
V:3
 [E,B,]4 [E,C]2 [E,A,]2 | [E,G,]6 [G,B,]2 | A,2 [G,B,]2 [F,A,]2 [E,B,]2 | [B,,B,]4 [B,,B,]4 | %4
 [E,B,]4 [E,C]2 [E,=A,]2 | [D,B,]6 [B,,B,]2 | [E,G,]2 [E,G,]2 F,2 [F,,F,]2 | [B,,F,]8 | %8
 (G,2 B,2) [F,A,]2 [G,B,]2 | [A,C]4 [A,C]4 | [G,C]2 [G,C]2 [=E,C]2 [E,C]2 | [F,C]4 [F,C]4 | %12
 [B,,B,]4 [B,,B,]2 [A,,B,]2 | [G,,B,]2 [E,G,]2 [A,,A,]2 [F,,C]2 | [B,,B,]4 [B,,A,]4 | [E,G,]8 |] %16
V:4
 x8 | x8 | A,2 x6 | x8 | x8 | x8 | x4 F,2 x2 | x8 | E,4 x4 | x8 | x8 | x8 | x8 | x8 | x8 | x8 |] %16

